X:1071
T:Maguire's Kick
R:double jig
N:"collected by J.O'Neill"
B:O'Neill's 1071
Z:Transcribed by henrik.norbeck@mailbox.swipnet.se
M:6/8
L:1/8
K:D
d/A/|F2E EDE|F2D DCD|F2E EFA|Td2e fdA|
F2E EDE|F2D DCD|F2E EFA|B3 d2:|
A|ABd e2f|ed2B A2F|ABd e2f|d3 B2A|
ABd ede|fdB BAF|AFE EFA|d3 fdA|
F2E EDE|F2D DCD|F2E EFA|ed2e fdA|
F2E EDE|F2D D2F|AFD DFA|B3 d2||
